!!!SOCIAL_FUNCTION:	songs of the moccasin game
!!!PDT:	1918

Specific Region: Dakotas, Minnesota, Montana, Nebraska
!!!REG: Dakotas and Montana
!!!LING_GROUP: Siouan
!!!LANG: Tone
!!!OTL@ENG: Song of the Moccasin Game (d)
!!!ONM: No. 209
**kern
*Imale
*clefF4
*k[b-e-]
*M2/4
*>[A,B,B1,B,B2]
*>norep[A,B,B2]
*>A
*MM76
8.g
16g
*>B
=1!|:
4g
8g
8d
=2
4g
8.g
16d
=3
4d
8c
8B-
=4
4c
8.c
16d
=5
4B-
8B-
8G
=6
4B-
12B-
12B-
12B-
=7
4G
16G
8.G
=8
4G
12G
12G
12d
=9
4d
8c
8B-
=10
4c
8.c
16d
=11
4B-
8B-
8G
=12
4B-
12B-
12B-
12B-
=13
4G
16G
8.G
*>B1
=14
!! ending 1
4G
12G
12G
12g
*>B2
=15:|!
!! ending 2
4G
4r
==
*-
!!!CNT: Native American -- Sioux
!!!MRD: 1911/07//-1914///
!!!OCL: Frances Densmore
!!!YOR1: Teton Sioux Music, Bulletin 61,
!!!YOR2: Bureau of American Ethnology, Smithsonian Institution
!!!PPR: Government Printing Office
!!!PPP: Washington, D.C.
!!!PDT: 1918///
!!!ENC: Craig Stuart Sapp
!!!END: 2002/03/25/
!!!EEV: 2002/03/31/
!!!AGN: Game Song
!!!MPN@@SIO: Chetang'-hota
!!!MPN@ENG: Gray Hawk
!!!TXO: Teton Sioux
!!!MLC: Standing Rock Reservation, South Dakota, United States of America
!!!ARL: 45.9/-100.7#
!!!catalog: Catalogue No. 559
!!!PPG: 487
!!!EFL: 214/245
!! ending 1
!! ending 2
!!!VTS: 149821220
